public/cloud-icons/azure/ai/cognitive-services.svg

<?xml version="1.0" encoding="UTF-8" standalone="no"?>
<!-- Generated by Microsoft Visio, SVG Export Cognitive Services.svg Page-1 -->

<svg
   xmlns:dc="http://purl.org/dc/elements/1.1/"
   xmlns:cc="http://creativecommons.org/ns#"
   xmlns:rdf="http://www.w3.org/1999/02/22-rdf-syntax-ns#"
   xmlns:svg="http://www.w3.org/2000/svg"
   xmlns="http://www.w3.org/2000/svg"
   xmlns:sodipodi="http://sodipodi.sourceforge.net/DTD/sodipodi-0.dtd"
   xmlns:inkscape="http://www.inkscape.org/namespaces/inkscape"
   width="56.689999"
   height="39.692154"
   viewBox="0 0 56.689998 39.692154"
   xml:space="preserve"
   class="st4"
   version="1.1"
   id="svg46"
   sodipodi:docname="Cognitive Services.svg"
   style="font-size:12px;overflow:visible;color-interpolation-filters:sRGB;fill:none;fill-rule:evenodd;stroke-linecap:square;stroke-miterlimit:3"
   inkscape:version="0.92.5 (2060ec1f9f, 2020-04-08)"><metadata
   id="metadata50"><rdf:RDF><cc:Work
       rdf:about=""><dc:format>image/svg+xml</dc:format><dc:type
         rdf:resource="http://purl.org/dc/dcmitype/StillImage" /></cc:Work></rdf:RDF></metadata><sodipodi:namedview
   pagecolor="#ffffff"
   bordercolor="#666666"
   borderopacity="1"
   objecttolerance="10"
   gridtolerance="10"
   guidetolerance="10"
   inkscape:pageopacity="0"
   inkscape:pageshadow="2"
   inkscape:window-width="640"
   inkscape:window-height="480"
   id="namedview48"
   showgrid="false"
   inkscape:zoom="2.1911093"
   inkscape:cx="28.3465"
   inkscape:cy="19.83503"
   inkscape:window-x="0"
   inkscape:window-y="0"
   inkscape:window-maximized="0"
   inkscape:current-layer="svg46" />
	<style
   type="text/css"
   id="style2">
	<![CDATA[
		.st1 {fill:url(#grad0-6);stroke:none;stroke-linecap:butt;stroke-width:34}
		.st2 {fill:#9cebff;stroke:none;stroke-linecap:butt;stroke-width:34}
		.st3 {fill:#f2f2f2;stroke:none;stroke-linecap:butt;stroke-width:34}
		.st4 {fill:none;fill-rule:evenodd;font-size:12px;overflow:visible;stroke-linecap:square;stroke-miterlimit:3}
	]]>
	</style>

	<defs
   id="Patterns_And_Gradients">
		<linearGradient
   id="grad0-6"
   x1="0"
   y1="81.281202"
   x2="47.435727"
   y2="81.281202"
   gradientTransform="scale(1.1950908,0.83675652)"
   gradientUnits="userSpaceOnUse">
			<stop
   offset="0"
   stop-color="#0078d4"
   stop-opacity="1"
   id="stop4" />
			<stop
   offset="0.16"
   stop-color="#1380da"
   stop-opacity="1"
   id="stop6" />
			<stop
   offset="0.53"
   stop-color="#3c91e5"
   stop-opacity="1"
   id="stop8" />
			<stop
   offset="0.82"
   stop-color="#559cec"
   stop-opacity="1"
   id="stop10" />
			<stop
   offset="1"
   stop-color="#5ea0ef"
   stop-opacity="1"
   id="stop12" />
		</linearGradient>
	</defs>
	<g
   id="g44"
   transform="translate(-34,-33.996876)">
		<title
   id="title16">Page-1</title>
		<g
   id="group19689-1"
   transform="translate(34,-34.0157)">
			<title
   id="title18">Cognitive Services.19689</title>
			<g
   id="group19690-2">
				<title
   id="title20">Icon-machinelearning-162</title>
				<g
   id="shape19691-3">
					<title
   id="title22">Sheet.19691</title>
					<path
   d="M 56.69,95.25 A 12.5984,12.4329 -180 0 0 45.64,83.19 16.063,15.8519 -180 0 0 29.1,68.02 16.5354,16.3181 -180 0 0 13.29,78.53 15.1181,14.9194 -180 0 0 0,93.04 15.4331,15.2302 -180 0 0 15.97,107.68 h 27.24 a 2.45669,2.42441 -180 0 0 0.7,0 12.9134,12.7437 -180 0 0 12.78,-12.43 z"
   class="st1"
   id="path24"
   inkscape:connector-curvature="0"
   style="fill:url(#grad0-6);stroke:none;stroke-width:34;stroke-linecap:butt" />
				</g>
				<g
   id="shape19692-7"
   transform="translate(7.52092,-0.0242297)">
					<title
   id="title27">Sheet.19692</title>
					<path
   d="M 9.55,92.2 H 6.78 a 3.43307,3.38795 -180 1 0 0,1.52 h 2.77 a 0.629921,0.621643 0 0 1 0.629921,0.621643 L 10.18,107.71 h 1.54 V 94.34 A 2.17323,2.14467 -180 0 0 9.55,92.2 Z m -6.14,2.73 a 2.01575,1.98926 0 1 1 2.01,-1.99 2.01575,1.98926 0 0 1 -2.01,1.99 z"
   class="st2"
   id="path29"
   inkscape:connector-curvature="0"
   style="fill:#9cebff;stroke:none;stroke-width:34;stroke-linecap:butt" />
				</g>
				<g
   id="shape19693-9"
   transform="translate(18.8976,-9.05107)">
					<title
   id="title32">Sheet.19693</title>
					<path
   d="M 9.26,101.91 V 98.8 A 2.20472,2.17575 -180 0 0 7.06,96.62 H 2.17 A 0.629921,0.621643 0 0 1 1.540079,95.998357 L 1.54,79.5 0.82,79.87 0,80.31 v 15.54 a 2.17323,2.14467 -180 0 0 2.17,2.14 h 4.89 a 0.661417,0.652725 0 0 1 0.661417,0.652725 L 7.72,101.75 a 3.40157,3.35687 -180 0 0 -2.68,3.3 3.43307,3.38795 -180 1 0 4.22,-3.3 z m -0.79,5.28 a 2.01575,1.98926 0 1 1 2.02,-1.99 2.01575,1.98926 0 0 1 -2.02,1.99 z"
   class="st3"
   id="path34"
   inkscape:connector-curvature="0"
   style="fill:#f2f2f2;stroke:none;stroke-width:34;stroke-linecap:butt" />
				</g>
				<g
   id="shape19694-11"
   transform="translate(26.5644,-0.0242297)">
					<title
   id="title37">Sheet.19694</title>
					<path
   d="m 19.2,86.32 a 3.43307,3.38795 -180 0 0 -0.79,6.69 v 0.62 a 0.661417,0.652725 0 0 1 -0.661417,0.652725 L 11.45,94.28 V 83.34 A 2.17323,2.14467 -180 0 0 9.28,81.2 H 6.03 A 3.40157,3.35687 -180 0 0 2.7,78.55 3.43307,3.38795 -180 1 0 6.03,82.72 H 9.4 a 0.629921,0.621643 0 0 1 0.629921,0.621643 L 10.03,107.71 h 1.55 V 95.8 h 6.3 a 2.20472,2.17575 -180 0 0 2.2,-2.17 v -0.62 a 3.43307,3.38795 -180 0 0 2.68,-3.3 3.43307,3.38795 -180 0 0 -3.56,-3.39 z M 2.7,83.93 A 2.01575,1.98926 0 1 1 4.71,81.94 2.01575,1.98926 0 0 1 2.7,83.93 Z m 16.5,7.77 a 2.01575,1.98926 0 1 1 1.98,-1.99 2.01575,1.98926 0 0 1 -1.98,1.99 z"
   class="st2"
   id="path39"
   inkscape:connector-curvature="0"
   style="fill:#9cebff;stroke:none;stroke-width:34;stroke-linecap:butt" />
				</g>
			</g>
		</g>
	</g>
</svg>

<svg xmlns="http://www.w3.org/2000/svg" xml:space="preserve" width="56.69" height="39.692" style="font-size:12px;overflow:visible;color-interpolation-filters:sRGB;fill-rule:evenodd;stroke-linecap:square;stroke-miterlimit:3" viewBox="0 0 56.69 39.692"><defs><linearGradient id="a" x1="0" x2="47.436" y1="81.281" y2="81.281" gradientTransform="scale(1.1951 .83676)" gradientUnits="userSpaceOnUse"><stop offset="0" stop-color="#0078d4"/><stop offset=".16" stop-color="#1380da"/><stop offset=".53" stop-color="#3c91e5"/><stop offset=".82" stop-color="#559cec"/><stop offset="1" stop-color="#5ea0ef"/></linearGradient></defs><g transform="translate(-34 -33.997)"><title>Page-1</title><g transform="translate(34 -34.016)"><title>Cognitive Services.19689</title><title>Icon-machinelearning-162</title><title>Sheet.19691</title><path d="M56.69 95.25a12.598 12.433-180 0 0-11.05-12.06A16.063 15.852-180 0 0 29.1 68.02a16.535 16.318-180 0 0-15.81 10.51A15.118 14.92-180 0 0 0 93.04a15.433 15.23-180 0 0 15.97 14.64h27.24a2.457 2.424-180 0 0 .7 0 12.913 12.744-180 0 0 12.78-12.43" style="fill:url(#a);stroke:none;stroke-width:34;stroke-linecap:butt"/><g transform="translate(7.52 -.024)"><title>Sheet.19692</title><path d="M9.55 92.2H6.78a3.433 3.388-180 1 0 0 1.52h2.77a.63.622 0 0 1 .63.622v13.368h1.54V94.34a2.173 2.145-180 0 0-2.17-2.14m-6.14 2.73a2.016 1.99 0 1 1 2.01-1.99 2.016 1.99 0 0 1-2.01 1.99" style="fill:#9cebff;stroke:none;stroke-width:34;stroke-linecap:butt"/></g><g transform="translate(18.898 -9.051)"><title>Sheet.19693</title><path d="M9.26 101.91V98.8a2.205 2.176-180 0 0-2.2-2.18H2.17a.63.622 0 0 1-.63-.622V79.5l-.72.37-.82.44v15.54a2.173 2.145-180 0 0 2.17 2.14h4.89a.661.653 0 0 1 .661.653l-.001 3.107a3.402 3.357-180 0 0-2.68 3.3 3.433 3.388-180 1 0 4.22-3.3zm-.79 5.28a2.016 1.99 0 1 1 2.02-1.99 2.016 1.99 0 0 1-2.02 1.99" style="fill:#f2f2f2;stroke:none;stroke-width:34;stroke-linecap:butt"/></g><g transform="translate(26.564 -.024)"><title>Sheet.19694</title><path d="M19.2 86.32a3.433 3.388-180 0 0-.79 6.69v.62a.661.653 0 0 1-.661.653l-6.299-.003V83.34a2.173 2.145-180 0 0-2.17-2.14H6.03a3.402 3.357-180 0 0-3.33-2.65 3.433 3.388-180 1 0 3.33 4.17H9.4a.63.622 0 0 1 .63.622v24.368h1.55V95.8h6.3a2.205 2.176-180 0 0 2.2-2.17v-.62a3.433 3.388-180 0 0 2.68-3.3 3.433 3.388-180 0 0-3.56-3.39M2.7 83.93a2.016 1.99 0 1 1 2.01-1.99 2.016 1.99 0 0 1-2.01 1.99m16.5 7.77a2.016 1.99 0 1 1 1.98-1.99 2.016 1.99 0 0 1-1.98 1.99" style="fill:#9cebff;stroke:none;stroke-width:34;stroke-linecap:butt"/></g></g></g></svg>
